X: 54
M: 2/4
L: 1/8
K: G
"^I"B | G2 D B | G2 D z | B B/ B/ A A/ A/ | G G D |
"^I"B | G2 D B | G2 D z | B B/ B/ A A/ A/ | G G G |] "^II"B |


